X: 1
T:Pigeon on the Gate
R:Reel
O:Scotland
M:4/4
K:D
a>f|\
e>A (3AAA A>B c>d|e>A (3AAA (a2 a)>f|\
e>A (3AAA A>B c>d|e>f g>e d2::
c>d|\
e>a a>f g>f e>d|e>a a>f g2 e>d|\
e>a a>f g>f e>d|e>f g>e d2:|
